!!!COM:	Martini, Johannes
!!!CDT:	~1440///-~1497//
!!!OPR:	Missa Coda di pavon
!!!ONM:	2
!!!OTL:	Gloria
!!!AGN:	Mass; Gloria
!!!SCT:	Mar1002b
!!!SCA:	Mar1002b
!!!voices:	4
!!!voices-OPR:	4
**kern	**kern	**kern	**kern
*staff4	*staff3	*staff2	*staff1
*Ivox	*Ivox	*Ivox	*Ivox
*I"Bassus	*I"Tenor	*I"Altus	*I"Superius
*I'B	*I'T	*I'A	*I'S
*>[A,B,C,D]	*>[A,B,C,D]	*>[A,B,C,D]	*>[A,B,C,D]
*>A	*>A	*>A	*>A
*clefF4	*clefGv2	*clefGv2	*clefG2
*k[]	*k[]	*k[]	*k[]
*M2/1	*M2/1	*M2/1	*M2/1
*met(C)	*met(C)	*met(C)	*met(C)
=1-	=1-	=1-	=1-
!!section: Et in terra pax
!!!OMD: Et in terra pax
1G	1g	0d	1g
2G\	2g\	.	2g/
2G\	2g\	.	2g/
=2	=2	=2	=2
1D	1f	1d	1a
2D\	2f\	1d	2a/
2D\	2f\	.	2a/
=3	=3	=3	=3
1G	2g\	1d	2b\
.	4f\	.	2b\
.	4e\	.	.
1G	1d	1g	1b
=4	=4	=4	=4
1C	1c	0g	2cc\
.	.	.	4b\
.	.	.	4a/
2C/	1e	.	1g
2C/	.	.	.
=5	=5	=5	=5
1C	1e	1g	1cc
2G\	1d	2g\	2b\
2D\	.	[2f\	[2a/
=6	=6	=6	=6
2F\	2c\	2f\]	4a/]
.	.	.	4g/
2G\	2B\	2e\	1g
1D	1A	1d	.
.	.	.	2f#i/
=7	=7	=7	=7
2E\	1G	2B\	1g
2C/	.	2e\	.
1G	1B	2d\	2r
.	.	[2g\	2d/
=8	=8	=8	=8
1C	2c\	2g\]	2e/
.	2c\	2g\	2e/
1G	1B	1g	1d
=9	=9	=9	=9
0C	2c\	1g	2e/
.	2d\	.	2f/
.	1e	[1c	1g
=10	=10	=10	=10
2F\	2f\	1c]	2a/
2A\	2e\	.	2cc\
1G	1g	1d	1b
=11	=11	=11	=11
1A	1e	2r	1cc
.	.	2c\	.
2D\	2f\	2f\	2dd\
2C/	2g\	2e\	[2ee\
=12	=12	=12	=12
2c\	2e\	2g\	4ee\]
.	.	.	4dd\
2F\	2f\	2a\	1cc
1G	1d	1g	.
.	.	.	2b\
=13	=13	=13	=13
0C	0c	1e	1cc
.	.	2e\	2r
.	.	2e\	2g/
=14	=14	=14	=14
1F	1c	1f	2a/
.	.	.	2.cc\
2C/	1c	2g\	.
.	.	.	4b\
[2F\	.	2c\	[2a/
=15	=15	=15	=15
2F\]	2c\	2f\	2a/]
2E\	1c	2g\	2g/
2.F\	.	1f	2a/
.	2c\	.	4g/
4E\	.	.	4f/
=16	=16	=16	=16
0C	0c	0g	0e
=17	=17	=17	=17
2G\	0r	1r	1d
2r	.	.	.
2A\	.	1c	2e/
2c\	.	.	2e/
=18	=18	=18	=18
1G	0r	2B\	2d/
.	.	2B\	2d/
2r	.	2c\	1c
2C/	.	4B\	.
.	.	4A/	.
=19	=19	=19	=19
2E\	0r	2G/	2g/
2F\	.	2A/	4f/
.	.	.	4e/
1G	.	2.B\	1d
.	.	4A/	.
=20	=20	=20	=20
2r	0r	2c\	1c
2C/	.	1e	.
2C/	.	.	2r
2E\	.	2c\	2g/
=21	=21	=21	=21
2D\	0r	2f\	2a/
2C/	.	2e\	1cc
1G	.	1d	.
.	.	.	2b\
=22	=22	=22	=22
2A\	0r	2c\	2cc\
2G\	.	2d\	2b\
2E\	.	2e\	2g/
[2D\	.	[2f\	[2a/
=23	=23	=23	=23
4D\]	0r	4f\]	4a/]
4E\	.	4e\	4g/
2F\	.	4d\	4f/
.	.	4c\	4e/
2.G\	.	2B\	2d/
.	.	2G/	[2g/
4F\	.	.	.
=24	=24	=24	=24
4E\	0r	2B\	4g/]
4D\	.	.	4d/
2C/	.	2c\	2.g/
1D	.	1A	.
.	.	.	4f#i/
.	.	.	4f#i/
.	.	.	4e/
=25	=25	=25	=25
2r	1G	1d	1g
2G\	.	.	.
2.B-\	2G/	2d\	2r
.	2G/	2d\	2g/
4A\	.	.	.
=26	=26	=26	=26
1F	1c	1f	2a/
.	.	.	2a/
1A	1c	2e\	1cc
.	.	2f\	.
=27	=27	=27	=27
1G	2r	1g	1b
.	2d\	.	.
2E\	2e\	2r	1cc
2E\	2e\	2G/	.
=28	=28	=28	=28
1D	1f	2A/	2dd\
.	.	2B\	2dd\
1C	2e\	[1c	1g
.	2e\	.	.
=29	=29	=29	=29
1F	1f	1c]	2a/
.	.	.	2a/
1G	1d	1g	1b
=30	=30	=30	=30
1A	1c	2e\	2a/
.	.	2.f\	2.dd\
1F	1f	.	.
.	.	4e\	4cc\
.	.	4d\	4b\
.	.	4c\	4a/
=31	=31	=31	=31
1E	1g	2e\	2b\
.	.	2f\	1g
1C	1e	1g	.
.	.	.	[2cc\
=32	=32	=32	=32
0G	0d	0g	2cc\]
.	.	.	2b\
.	.	.	2.b\
.	.	.	4a/
=33	=33	=33	=33
1C	1c	1e	1cc
1r	1r	1r	1r
=34	=34	=34	=34
3%2cV	0r	3%2eV	3%2gV
3%2c	.	3%2e	3%2g
3%2AZ	.	3%2fZ	3%2aZ
=35	=35	=35	=35
3%2GV	0r	3%2gV	3%2bV
3%2G	.	3%2g	3%2b
3%2AZ	.	3%2eZ	3%2ccZ
=36	=36	=36	=36
3%4DV	0r	3%2fV	3%4ddV
.	.	3%2d	.
3%2AZ	.	3e\	3%2ccZ
.	.	3f\Z	.
=37	=37	=37	=37
3%2GV	0r	3%2.gV	3%2bV
3%4dZ	.	.	3%4aZ
.	.	3f#i\	.
.	.	3f#i\	.
.	.	3e\Z	.
=38	=38	=38	=38
3%4GV	3%4dV	3%4gV	3%4gV
[3%2CZ	3%2eZ	3%2rZ	[3%2ccZ
=39	=39	=39	=39
3%2C]V	3%2eV	3%4gV	3%2cc]V
3%2G	3%2d	.	3%2b
3%2DZ	3%2fZ	3%2aZ	3%2ddZ
=40	=40	=40	=40
3%2AV	3%2eV	3a\V	3%2.eeV
.	.	6g\	.
.	.	6f\	.
3%4AZ	3%4cZ	3%2e	.
.	.	.	3dd\
.	.	3%2f#iZ	3%2ccZ
=41	=41	=41	=41
0Gl	0dl	0gl	0bl
!!LO:LB:i:g=z
=42||	=42||	=42||	=42||
*>B	*>B	*>B	*>B
*clefF4	*clefGv2	*clefGv2	*clefG2
*k[]	*k[]	*k[]	*k[]
*M2/1	*M2/1	*M2/1	*M2/1
*met(C)	*met(C)	*met(C)	*met(C)
!!section: Domine Deus
!!!OMD: Domine Deus
1C	0r	1e	2g/
.	.	.	2g/
2F\	.	2f\	2a/
2C/	.	2e\	[2cc\
=43	=43	=43	=43
1G	0r	1d	2cc\]
.	.	.	2b\
1C	.	1c	2.cc\
.	.	.	4b\
=44	=44	=44	=44
1C	1c	1e	1g
1G	1d	1g	1b
=45	=45	=45	=45
1C	1e	2e\	1cc
.	.	2e\	.
1r	1f	2.a\	1dd
.	.	4g\	.
=46	=46	=46	=46
3%2CV	3%4cV	3%4gV	3%4eeV
3%2E	.	.	.
3%2DZ	3%2dZ	3%2aZ	3%2ffZ
=47	=47	=47	=47
3%4DV	3%4fV	3%4aV	3%4ddV
3%2AZ	3%2eZ	3%2aZ	3%2ccZ
=48	=48	=48	=48
3%4DV	3%4dV	3%2.fV	3%2ddV
.	.	.	3%2ff
.	.	3e\	.
3%2AZ	3%2eZ	3%2cZ	3%2eeZ
=49	=49	=49	=49
3%2dV	3%2fV	3%2fV	3%2ddV
3%2c	3%2g	3%2e	3%2.ee
3%2AZ	3%2cZ	3%2aZ	.
.	.	.	3dd\Z
=50	=50	=50	=50
3%2cV	3%2eV	3%4gV	3%2.ccV
3%4GZ	3%4dZ	.	.
.	.	.	3b\
.	.	3%2gZ	3b\
.	.	.	3a/Z
=51	=51	=51	=51
0Cl	0cl	0el	0ccl
!!LO:LB:i:g=z
=52||	=52||	=52||	=52||
*>C	*>C	*>C	*>C
*clefF4	*clefGv2	*clefGv2	*clefG2
*k[]	*k[]	*k[]	*k[]
*M2/1	*M2/1	*M2/1	*M2/1
*met(C)	*met(C)	*met(C)	*met(C)
!!section: Qui tollis
!!!OMD: Qui tollis
0G	0g	0d	0g
=53	=53	=53	=53
1G	0g	1d	1b
1G	.	1d	1b
=54	=54	=54	=54
0D	0f	1d	0a
.	.	1d	.
=55	=55	=55	=55
0G	0g	0d	1b
.	.	.	[1dd
=56	=56	=56	=56
1A	1e	0r	2dd\]
.	.	.	2cc\
1A	1c	.	[1cc
=57	=57	=57	=57
0G	0d	0g	2cc\]
.	.	.	2b\
.	.	.	2.b\
.	.	.	4a/
=58	=58	=58	=58
0C	1c	1g	0cc
.	1c	1g	.
=59	=59	=59	=59
1.F	1c	1f	1.a
.	1d	1f	.
2E\	.	.	2g/
=60	=60	=60	=60
0C	0e	[0g	1g
.	.	.	1cc
=61	=61	=61	=61
1G	1r	1g]	1b
1A	1c	1e	[1a
=62	=62	=62	=62
1F	1d	1f	2a/]
.	.	.	2g/
1G	1B	1e	[1g
=63	=63	=63	=63
0D	0A	0d	1g]
.	.	.	1f#i
=64	=64	=64	=64
1r	[0G	0B	0g
1G	.	.	.
=65	=65	=65	=65
0G	0G]	1B	1r
.	.	1B	1d
=66	=66	=66	=66
[0C	1r	1.c	0e
.	1c	.	.
.	.	4B\	.
.	.	4A/	.
=67	=67	=67	=67
0C]	0c	0G	1e
.	.	.	1e
=68	=68	=68	=68
[0G	0B	1r	0d
.	.	1g	.
=69	=69	=69	=69
0G]	1B	1g	0d
.	1B	1g	.
=70	=70	=70	=70
0C	0c	[0g	1.e
.	.	.	2f/
=71	=71	=71	=71
1E	0r	1g]	0g
1G	.	1d	.
=72	=72	=72	=72
1F	0c	1f	1a
1A	.	1e	1cc
=73	=73	=73	=73
1G	0d	0g	0b-i
1B-	.	.	.
=74	=74	=74	=74
1A	1e	0c	1cc
1F	1f	.	1a
=75	=75	=75	=75
0G	1d	1.B	1b
.	[1g	.	1b
.	.	2c\	.
=76	=76	=76	=76
0D	1g]	0d	0a
.	1f#i	.	.
=77	=77	=77	=77
0E	0g	1r	0g
.	.	[1G	.
=78	=78	=78	=78
0C	0e	1G]	1cc
.	.	1A	1ee
=79	=79	=79	=79
1BB-	1f	1B-	2.dd\
.	.	.	4cc\
1C	1e	1G	[1cc
=80	=80	=80	=80
0G	0d	1r	2cc\]
.	.	.	2b\
.	.	1g	2b\
.	.	.	2a/
=81	=81	=81	=81
[0C	[0c	0g	0cc
=82	=82	=82	=82
0C]	0c_	0e	1r
.	.	.	1g
=83	=83	=83	=83
1r	0c_	0g	1.cc
1C	.	.	.
.	.	.	2b\
=84	=84	=84	=84
1.F	0c]	0f	1.a
2E\	.	.	4g/
.	.	.	4f/
=85	=85	=85	=85
0Cl	0cl	0gl	0el
!!LO:LB:i:g=z
=86||	=86||	=86||	=86||
*>D	*>D	*>D	*>D
*clefF4	*clefGv2	*clefGv2	*clefG2
*k[]	*k[]	*k[]	*k[]
*M2/1	*M2/1	*M2/1	*M2/1
*met(C)	*met(C)	*met(C)	*met(C)
!!section: Qui sedes
!!!OMD: Qui sedes
0C	0r	0c	0r
=87	=87	=87	=87
1G	0r	1B	1r
1G	.	1B	1d
=88	=88	=88	=88
1C	0r	1.c	1e
[1c	.	.	1e
.	.	2B\	.
=89	=89	=89	=89
2c\]	0r	0G	0d
4B\	.	.	.
4A\	.	.	.
1B	.	.	.
=90	=90	=90	=90
1c	0r	1A	1c
1G	.	1B	[1g
=91	=91	=91	=91
1E	0r	1G	1g]
1F	.	[1c	1f
=92	=92	=92	=92
0G	0r	1c]	0d
.	.	1B	.
=93	=93	=93	=93
0C	0r	1.c	1c
.	.	.	1r
.	.	2d\	.
=94	=94	=94	=94
1r	0r	1e	1g
1F	.	1f	1a
=95	=95	=95	=95
1C	0r	1e	1cc
1G	.	2d\	1b
.	.	[2e\	.
=96	=96	=96	=96
2E\	0r	2e\]	2g/
2F\	.	2c\	2.a/
2D\	.	2.d\	.
.	.	.	4g/
[2G\	.	.	4f/
.	.	4c\	4e/
=97	=97	=97	=97
4G\]	0r	4B\	2d/
4F\	.	4A/	.
4E\	.	2G/	2g/
4D\	.	.	.
2C/	.	2c\	2e/
2F\	.	2A/	[2a/
=98	=98	=98	=98
2D\	0r	2d\	4a/]
.	.	.	4g/
2G\	.	2B\	1g
1D	.	1A	.
.	.	.	2f#i/
=99	=99	=99	=99
0d	0G	1G	1g
.	.	1g	1b
=100	=100	=100	=100
1c	1A	2.f\	1cc
.	.	4e\	.
1B	1G	[1g	1dd
=101	=101	=101	=101
1G	1B	2g\]	1dd
.	.	2e\	.
1A	1c	1f	1cc
=102	=102	=102	=102
1.G	0d	0g	1.b
4F\	.	.	4a/
4E\	.	.	4g/
=103	=103	=103	=103
0D	[0d	1a	1f
.	.	[1f	1a
=104	=104	=104	=104
1D	1d]	2f\]	1b
.	.	2g\	.
[1F	1c	[1f	2cc\
.	.	.	2b\
=105	=105	=105	=105
1F]	1d	2f\]	2a/
.	.	2e\	2g/
1G	1B	[1d	[1g
=106	=106	=106	=106
0D	0A	2d\]	2g/]
.	.	2c\	2f#i/
.	.	1d	2f#i/
.	.	.	2e/
=107	=107	=107	=107
1E	0G	1B	0g
[1C	.	[1e	.
=108	=108	=108	=108
2C/]	0c	2e\]	0r
2D\	.	2d\	.
1E	.	1g	.
=109	=109	=109	=109
1D	0r	2.f\	0r
.	.	4e\	.
1F	.	[1d	.
=110	=110	=110	=110
0E	0r	2d\]	0r
.	.	4c#i\	.
.	.	4B\	.
.	.	1c#i	.
=111	=111	=111	=111
0D	0r	2d\	1r
.	.	2.f\	.
.	.	.	1a
.	.	4g\	.
.	.	[2a\	.
=112	=112	=112	=112
1D	1r	4a\]	1a
.	.	4g\	.
.	.	4f\	.
.	.	4e\	.
1D	1d	1f	1a
=113	=113	=113	=113
0G	1d	[0g	0b
.	1d	.	.
=114	=114	=114	=114
0C	0e	0g]	0cc
=115	=115	=115	=115
0r	1.f	1.a	0dd
.	2e\	2g\	.
=116	=116	=116	=116
0C	0c	1.g	1r
.	.	.	1ee
.	.	4f\	.
.	.	4e\	.
=117	=117	=117	=117
[0BB-	1r	1d	1.ff
.	1d	1B-	.
.	.	.	2ee\
=118	=118	=118	=118
0BB-]	0f	1.B-i	0dd
.	.	2G/	.
=119	=119	=119	=119
0C	0e	1G	0cc
.	.	1c	.
=120	=120	=120	=120
0D	0d	1A	1r
.	.	1B	1ff
=121	=121	=121	=121
0A	1r	1.c	1ee
.	1e	.	1cc
.	.	2B\	.
=122	=122	=122	=122
1D	0f	0A	0dd
1F	.	.	.
=123	=123	=123	=123
0C	0g	1r	0ee
.	.	1c	.
=124	=124	=124	=124
1r	0d	1B-	1.ff
[1BB-i	.	[1d	.
.	.	.	2ee\
=125	=125	=125	=125
1BB-]	1f	1d]	2dd\
.	.	.	2cc\
1C	1e	[1g	[1cc
=126	=126	=126	=126
0G	0d	1g]	1cc]
.	.	1g	1b
=127	=127	=127	=127
0Cl	0cl	0gl	0ccl
==	==	==	==
*-	*-	*-	*-
!!!RDF**kern: l=long note in original notation
!!!RDF**kern: i=editorial accidental
!!!RDF**kern: V=start of tuplet marker
!!!RDF**kern: Z=end of tuplet marker
!!!ENC:	Chris Gage 10-31-2013
!!!END:	2014/06/21/
!!!EED:	Jesse Rodin
!!!EEV:	2015/03/09/
!!!ONB:	Translated from MusicXML and edited on 2015/03/09/ by Craig Sapp
!!muse2ps: T^@{OPR}^u^@{ONM}{. }@{OTL}^C^@{COM}^i2I150v85,85,85,150Q16
